X: 1
T: Joe Murphy
C: George Stirrat
R: shottish, strathspey
B: Goldring, 10 Soc.
Z: 1997 by John Chambers <jc:trillian.mit.edu>
N:
M: C
L: 1/8
K: A
"E7"e2 \
| "A"A2 a>f e>f e<c | "Bm"B>c d<f "E7"e>=f ^f>g | "A"a<A c>e "F#m"a2 a2 | "Bm"f<b b>a "E7"g<e f>g |
| "A"a>e c<e "D"f2 a2 | "E7"e>f e>d "(A)"c2 "E7"B2 | "A"A2 a>f e>f e<c | "E7"e>=f ^f>g "A"a2 |]
"E7"e2 \
| "A"A<c A>c e2 a2 | "Bm"f<b b>a "E7"g>f e>d | "A"c>d e<c "F#m"A>B c<A | "B7"B>c d<^d "E7"e>=f ^f>g |
| "A"a>e c<e "D"f2 a2 | "E7"e>f e>d "(F#m)"c2 "E7"B2 | "A"A2 a>f "F#m"e>f e<c | "E7"e>=f ^f>g "A"a2 |]
